X: 4000
T: Blackthorn Stick, The
R: jig
M: 6/8
K: Amajor
|:e|~a3 faf|ecA BAF|EAA BAB|cAc B2 e|
~a3 baf|ecA BAF|EAA BAB|cAA A2:|
|:e|fee aee|fee aee|fee ~a3|fec B2 e|
~a3 baf|ecA BAF|EAA BAB|cAA A2:|

